X:3
T:Amhran Na Leabhar
T:Song of the Books, The
T:Valencia harbour
M:4/4
L:1/8
Q:1/4=100
S:Chris Partington <ChrisTheFiddlerPartington:Hotmail.com> tradtunes 2009-4-2
C:Tomás Rua Ó Súilleabháin,(1785-1848)
Z:transcribed by Paul de Grae,edited by Chris Partington
K:Edor
B2 |\
(E3F) (G3A) | Be-e4-ef | e3 d B3 A | Bc d4 e2 |\
E3 F G3 F | GA B4 BA | G2 E4 ED | E4-Ez B2 |
E3 F G2 A2 | Be-e4-ef | e3 d B3 A | Bc d4-dz |\
E2-EF G3 F | GA B4 BA | G2 F E4 D | E4-Ez e2 ||
e2-ed e3 d | ef g4 f2 | e3 d B3 A | B4-Bz Bc |\
d2-dc d3 c | dd e4 ed | B3 A G3 A | B4-Bz B2 |
E2-EF G2 A2 | Be-e4 ef | e3 d B3 A | Bc d4-de |\
E2-EF G3 F | GA B4 BA | G2 F E4 D | E6 |]
